static/img/in-field/radio-btn-on-focus-dark.svg

<svg fill="none" height="56" viewBox="0 0 56 56" width="56" xmlns="http://www.w3.org/2000/svg"><path clip-rule="evenodd" d="m27.9998 14.6667c-7.36 0-13.3333 5.9733-13.3333 13.3333s5.9733 13.3333 13.3333 13.3333 13.3334-5.9733 13.3334-13.3333-5.9734-13.3333-13.3334-13.3333zm0 6.6666c-3.68 0-6.6666 2.9867-6.6666 6.6667s2.9866 6.6667 6.6666 6.6667 6.6667-2.9867 6.6667-6.6667-2.9867-6.6667-6.6667-6.6667zm-10.6666 6.6667c0 5.8933 4.7733 10.6667 10.6666 10.6667 5.8934 0 10.6667-4.7734 10.6667-10.6667s-4.7733-10.6667-10.6667-10.6667c-5.8933 0-10.6666 4.7734-10.6666 10.6667z" fill="#019aeb" fill-rule="evenodd"/><circle cx="28" cy="28" r="19" stroke="#019aeb" stroke-width="3"/></svg>

<svg width="56" height="56" viewBox="0 0 56 56" fill="none" xmlns="http://www.w3.org/2000/svg"><path fill-rule="evenodd" clip-rule="evenodd" d="M27.9998 14.6667C20.6398 14.6667 14.6665 20.64 14.6665 28C14.6665 35.36 20.6398 41.3333 27.9998 41.3333C35.3598 41.3333 41.3332 35.36 41.3332 28C41.3332 20.64 35.3598 14.6667 27.9998 14.6667ZM27.9998 21.3333C24.3198 21.3333 21.3332 24.32 21.3332 28C21.3332 31.68 24.3198 34.6667 27.9998 34.6667C31.6798 34.6667 34.6665 31.68 34.6665 28C34.6665 24.32 31.6798 21.3333 27.9998 21.3333ZM17.3332 28C17.3332 33.8933 22.1065 38.6667 27.9998 38.6667C33.8932 38.6667 38.6665 33.8933 38.6665 28C38.6665 22.1067 33.8932 17.3333 27.9998 17.3333C22.1065 17.3333 17.3332 22.1067 17.3332 28Z" fill="#019AEB"/><circle cx="28" cy="28" r="19" stroke="#019AEB" stroke-width="3"/></svg>
